X: 1861
T: Arkansas Traveler, The
R: reel
M: 4/4
K: Dmajor
|:b,c|dfed b,2b,2|a,2a,2 d4|e2e2 f2f2|efed b,2a,2|
dfed b,2b,2|a,2a,2 d4|dcdA BdAG|FDEF D2:|
|:fg|agfa gfeg|fedf edce|dcdf edeg|fedf e2fg|
agfa gfeg|fedf edce|dcdA BdAG|FDEF D2:|

